Newaita-dark/.DP/16/teamviewer-indicator.svg

<svg xmlns="http://www.w3.org/2000/svg" xmlns:xlink="http://www.w3.org/1999/xlink" width="16px" height="16px" viewBox="0 0 16 16" version="1.1">
<g id="surface1">
<path style=" stroke:none;fill-rule:nonzero;fill:rgb(93.333334%,93.333334%,93.333334%);fill-opacity:1;" d="M 7.9375 2.109375 C 4.640625 2.109375 1.984375 4.765625 1.984375 8.0625 C 1.984375 11.363281 4.640625 14.015625 7.9375 14.015625 C 11.238281 14.015625 13.890625 11.363281 13.890625 8.0625 C 13.890625 4.765625 11.238281 2.109375 7.9375 2.109375 Z M 9.585938 5.746094 C 9.761719 5.746094 9.933594 5.816406 10.058594 5.945312 L 11.710938 7.597656 C 11.96875 7.855469 11.96875 8.273438 11.710938 8.527344 L 10.058594 10.183594 C 9.890625 10.351562 9.648438 10.421875 9.417969 10.359375 C 9.1875 10.300781 9.007812 10.121094 8.949219 9.890625 C 8.890625 9.660156 8.957031 9.417969 9.125 9.25 L 9.660156 8.71875 C 9.636719 8.722656 9.613281 8.722656 9.59375 8.722656 L 6.21875 8.722656 L 6.75 9.25 C 6.921875 9.417969 6.988281 9.660156 6.925781 9.890625 C 6.867188 10.121094 6.6875 10.300781 6.457031 10.359375 C 6.230469 10.421875 5.984375 10.351562 5.820312 10.183594 L 4.164062 8.527344 C 3.90625 8.273438 3.90625 7.855469 4.164062 7.597656 L 5.820312 5.945312 C 5.9375 5.820312 6.101562 5.75 6.273438 5.746094 C 6.542969 5.738281 6.792969 5.894531 6.898438 6.144531 C 7.003906 6.394531 6.945312 6.6875 6.75 6.875 L 6.21875 7.40625 L 9.59375 7.40625 C 9.613281 7.40625 9.636719 7.40625 9.660156 7.40625 L 9.125 6.875 C 8.933594 6.6875 8.875 6.402344 8.976562 6.15625 C 9.074219 5.90625 9.316406 5.746094 9.585938 5.746094 Z M 10.257812 8.003906 C 10.261719 8.042969 10.261719 8.082031 10.257812 8.121094 L 10.316406 8.0625 Z M 10.257812 8.003906 "/>
</g>
</svg>

<svg xmlns="http://www.w3.org/2000/svg" width="16pt" height="16pt" viewBox="0 0 16 16"><path d="M7.938 2.11a5.942 5.942 0 0 0-5.954 5.953 5.94 5.94 0 0 0 5.954 5.953c3.3 0 5.953-2.653 5.953-5.954A5.94 5.94 0 0 0 7.937 2.11zm1.648 3.636a.66.66 0 0 1 .473.2l1.652 1.652a.655.655 0 0 1 0 .93l-1.652 1.656a.66.66 0 1 1-.934-.934l.535-.531c-.023.004-.047.004-.066.004H6.219l.531.527c.172.168.238.41.176.64a.648.648 0 0 1-.469.47.654.654 0 0 1-.637-.176L4.164 8.527a.655.655 0 0 1 0-.93L5.82 5.946a.64.64 0 0 1 .453-.199.657.657 0 0 1 .477 1.129l-.531.531H9.66l-.535-.531a.657.657 0 0 1-.148-.719.65.65 0 0 1 .609-.41zm.672 2.258a.587.587 0 0 1 0 .117l.058-.059zm0 0" fill="#bdbdbd"/></svg>
